X: 1729
T: Mr Emmett's Waltz
B: australian traditional tunes wiki
M:3/4
L:1/8
R: Waltz
Q: 1/4=100
K:D
V:1 
FG|"D"A3BA2|F2A2d2|"A"c6|"Em"B4A2|c2B2A2|"A"G3AB2|"D"A6|F4FG|
"D"A3BA2|F2A2d2|"A"c6|"Em"B6|c3BA2|"A"c2d2e2|"D"d6-|d4FG||
"D"Af ed cB|A4FG|Af ed cB|"Em"G4A2|gf ed cB|"D"A4Bc|"Em"B3A GB|"D"A2F3G|
"D"Af ed cB|A4FG|Af ed cB|"Em"G4A2|gf ed cB|A2B2c2|"D"d2f3e|"D"d6||
% abcbook-tune_id 6342d53af0b79ca492da0bc2


% abcbook-boost 0
% abcbook-tablature 
% abcbook-transpose 
% abcbook-lastupdated 1665324380445
% abcbook-soundfonts 
% abcbook-repeats 1
% NFF Book 2007

